build/conf/jupyter/jupyter_app_launcher/welcome.svg

<?xml version="1.0" encoding="UTF-8" standalone="no" ?>
<!DOCTYPE svg PUBLIC "-//W3C//DTD SVG 1.1//EN" "http://www.w3.org/Graphics/SVG/1.1/DTD/svg11.dtd">
<svg xmlns="http://www.w3.org/2000/svg" xmlns:xlink="http://www.w3.org/1999/xlink" version="1.1" width="1080" height="1080" viewBox="0 0 1080 1080" xml:space="preserve">
<desc>Created with Fabric.js 5.2.4</desc>
<defs>
</defs>
<rect x="0" y="0" width="100%" height="100%" fill="transparent"></rect>
<g transform="matrix(1 0 0 1 540 540)" id="0eac3fee-cc36-4ae7-a917-fb4ea82c7fe1"  >
<rect style="stroke: none; stroke-width: 1; stroke-dasharray: none; stroke-linecap: butt; stroke-dashoffset: 0; stroke-linejoin: miter; stroke-miterlimit: 4; fill: rgb(255,255,255); fill-rule: nonzero; opacity: 1; visibility: hidden;" vector-effect="non-scaling-stroke"  x="-540" y="-540" rx="0" ry="0" width="1080" height="1080" />
</g>
<g transform="matrix(1 0 0 1 540 540)" id="914135ec-49e5-4e35-a166-2afd7298f872"  >
</g>
<g transform="matrix(1.05 0 0 1.05 555.38 540)" id="path3040"  >
<path style="stroke: rgb(0,0,0); stroke-width: 0; stroke-dasharray: none; stroke-linecap: butt; stroke-dashoffset: 0; stroke-linejoin: miter; stroke-miterlimit: 4; fill: rgb(208,210,216); fill-rule: nonzero; opacity: 1;" vector-effect="non-scaling-stroke"  transform=" translate(3214.49, 4102.63)" d="M -3297.4692 -4041.262 L -3297.4692 -4408.2794 L -3311.5162 -4423.3167 C -3349.5571 -4464.0398000000005 -3320.6408 -4531.0086 -3265.0159 -4531.0086 C -3233.946 -4531.0086 -3200.1096 -4498.6105 -3200.1096 -4468.8614 C -3200.1096 -4451.9394999999995 -3212.7376 -4425.2294999999995 -3224.0903 -4418.1398 C -3234.1612 -4411.8504 -3234.1855 -4410.9397 -3234.1855 -4043.0398 L -3234.1855 -3674.2446 L -3265.8274 -3674.2446 L -3297.4692 -3674.2446 z M -3209.8456 -4095.3248000000003 L -3209.8456 -4165.910000000001 L -3093.7336 -4165.910000000001 L -2977.6226 -4165.910000000001 L -2937.9583000000002 -4131.578600000001 C -2916.1434000000004 -4112.696600000001 -2898.2945000000004 -4095.7031000000006 -2898.2945000000004 -4093.814700000001 C -2898.2945000000004 -4091.9270000000006 -2915.6712 -4075.612400000001 -2936.9098000000004 -4057.560500000001 L -2975.5249000000003 -4024.739100000001 L -3092.6850000000004 -4024.739100000001 L -3209.8456000000006 -4024.739100000001 z M -3639.0285000000003 -4160.101500000001 C -3659.5495000000005 -4178.022100000001 -3676.5135000000005 -4193.779200000001 -3676.7261000000003 -4195.117900000001 C -3676.9404000000004 -4196.456600000001 -3658.5954 -4213.433700000001 -3635.9622000000004 -4232.8447000000015 L -3594.8112000000006 -4268.137700000001 L -3458.3102000000003 -4268.137700000001 L -3321.8091000000004 -4268.137700000001 L -3321.8091000000004 -4197.551900000001 L -3321.8091000000004 -4126.966200000002 L -3461.7635000000005 -4127.243700000002 L -3601.7179000000006 -4127.521200000002 L -3639.0285000000003 -4160.103500000002 z M -3206.6001000000006 -4227.5713000000005 C -3208.3852000000006 -4229.3563 -3209.8456000000006 -4261.1197 -3209.8456000000006 -4298.157 L -3209.8456000000006 -4365.4973 L -3019.4473000000007 -4365.4973 L -2829.0489000000007 -4365.4973 L -2790.6523000000007 -4333.0947 C -2769.5340000000006 -4315.2733 -2752.2552000000005 -4299.0809 -2752.2552000000005 -4297.111599999999 C -2752.2552000000005 -4295.142199999999 -2770.5962000000004 -4277.9598 -2793.0128000000004 -4258.928399999999 L -2833.7699000000002 -4224.3256999999985 L -3018.5623 -4224.3256999999985 C -3120.1979 -4224.3256999999985 -3204.8155 -4225.786199999999 -3206.6001 -4227.571299999999 z" stroke-linecap="round" />
</g>
</svg>

<?xml version="1.0" encoding="UTF-8" standalone="no"?>
<svg
   xmlns:dc="http://purl.org/dc/elements/1.1/"
   xmlns:cc="http://creativecommons.org/ns#"
   xmlns:rdf="http://www.w3.org/1999/02/22-rdf-syntax-ns#"
   xmlns:svg="http://www.w3.org/2000/svg"
   xmlns="http://www.w3.org/2000/svg"
   version="1.1"
   id="svg2"
   viewBox="0 0 1080 1080"
   height="12in"
   width="12in">
  <defs
     id="defs4" />
  <metadata
     id="metadata7">
    <rdf:RDF>
      <cc:Work
         rdf:about="">
        <dc:format>image/svg+xml</dc:format>
        <dc:type
           rdf:resource="http://purl.org/dc/dcmitype/StillImage" />
        <dc:title></dc:title>
      </cc:Work>
    </rdf:RDF>
  </metadata>
  <g
     transform="translate(0,27.63782)"
     id="layer1">
    <g
       transform="matrix(0.72254444,0,0,0.72254444,2906.0967,3458.0965)"
       id="layer1-9">
      <g
         transform="matrix(0.78552379,0,0,0.78552379,-2414.0471,-4243.1355)"
         id="layer1-2" />
      <path
         style="fill:#0b0c10"
         id="path3040"
         d="m -3297.4692,-4041.262 0,-367.0174 -14.047,-15.0373 c -38.0409,-40.7231 -9.1246,-107.6919 46.5003,-107.6919 31.0699,0 64.9063,32.3981 64.9063,62.1472 0,16.9219 -12.628,43.6319 -23.9807,50.7216 -10.0709,6.2894 -10.0952,7.2001 -10.0952,375.1 l 0,368.7952 -31.6419,0 -31.6418,0 z m 87.6236,-54.0628 0,-70.5852 116.112,0 116.111,0 39.6643,34.3314 c 21.8149,18.882 39.6638,35.8755 39.6638,37.7639 0,1.8877 -17.3767,18.2023 -38.6153,36.2542 l -38.6151,32.8214 -117.1601,0 -117.1606,0 z m -429.1829,-64.7767 c -20.521,-17.9206 -37.485,-33.6777 -37.6976,-35.0164 -0.2143,-1.3387 18.1307,-18.3158 40.7639,-37.7268 l 41.151,-35.293 136.501,0 136.5011,0 0,70.5858 0,70.5857 -139.9544,-0.2775 -139.9544,-0.2775 -37.3106,-32.5823 z m 432.4284,-67.4698 c -1.7851,-1.785 -3.2455,-33.5484 -3.2455,-70.5857 l 0,-67.3403 190.3983,0 190.3984,0 38.3966,32.4026 c 21.1183,17.8214 38.3971,34.0138 38.3971,35.9831 0,1.9694 -18.341,19.1518 -40.7576,38.1832 l -40.7571,34.6027 -184.7924,0 c -101.6356,0 -186.2532,-1.4605 -188.0378,-3.2456 z" />
    </g>
  </g>
</svg>
